X: 644
T: The highway to Limerick
C: anon.
O: Ireland
B: Francis O'Neill: "The Dance Music of Ireland" (1907) no. 644
R: Reel
Z: Transcribed by Frank Nordberg - http://www.musicaviva.com
F: http://www.musicaviva.com/abc/tunes/ireland/oneill-1001/oneill-1001-064
4.abc
m: Tn = (3n/o/n/
M: C|
L: 1/8
K: Am
EAAA cBAc|BAGB dBGA|EAAB cBcd|(3(e^fg) TdB BAA2:|eaag e^fge|dBGB AGED|
eaag e^fga|bagb a2a2|eaag e^fge|dBgd TBGG2|EAAB ({d}c)Bcd|(3(e^fg) TdB BA
A2|]
W:
W:
W: From Musica Viva - http://www.musicaviva.com
W: the Internet center for free sheet music downloads.


